communes/3988.svg

<?xml version="1.0" encoding="UTF-8"?>
<!DOCTYPE svg  PUBLIC '-//W3C//DTD SVG 1.1//EN'  'http://www.w3.org/Graphics/SVG/1.1/DTD/svg11.dtd'>
<svg width="438" height="480" viewBox="21 15 438 480" xmlns="http://www.w3.org/2000/svg" xmlns:dc="http://purl.org/dc/elements/1.1/" xmlns:rdf="http://www.w3.org/1999/02/22-rdf-syntax-ns#" xmlns:xlink="http://www.w3.org/1999/xlink">
<metadata>
<rdf:RDF>
<rdf:Description dc:date="2006-10-29" dc:format="image/svg+xml" dc:language="de" dc:title="Wappen Obersaxen (CH-GR)">
<dc:creator rdf:resource="http://de.wikipedia.org/wiki/Benutzer:Bernina"/>
</rdf:Description>
</rdf:RDF>
</metadata>
<title>Wappen Obersaxen (CH-GR)</title>
<style type="text/css"><![CDATA[
  .Rand2 { stroke: #202020; stroke-width:30; }
  .Rand3 { stroke: #202020; stroke-width:45; }
  .Rand4 { stroke: #202020; stroke-width:60; }
  .Rand6 { stroke: #202020; stroke-width:90; }
  .Blau { fill: #0000ff; }
  .Rot { fill: #ff0000; }
  .Gold { fill: #ffef00; }
  .Silber { fill: #ffffff; }
  ]]></style>
<defs>
<path id="c" d="m2430 4770v-4140h-360v540h-180l-270-90-90-180v-270h-720v360h360v360h-360v360h1260v450h-1260v360h360v360h-360v360h720v-270l90-180 270-90h180v2070l180 360 180-360z"/>
<path id="b" d="m2250 6120c-240-150-480-300-600-465s-120-345-75-480 135-225 225-270 180-45 255 0 135 135 195 225v-360c0-60 0-120-105-180s-315-120-495-75-330 195-405 450-75 615 105 885 540 450 900 630c360-180 720-360 900-630s180-630 105-885-225-405-405-450-390 15-495 75-105 120-105 180v360c60-90 120-180 195-225s165-45 255 0 180 135 225 270 45 315-75 480-360 315-600 465z"/>
<path id="a" d="m2430 6480a180 180 0 0 0-360 0 180 180 0 0 0 360 0z"/>
<clipPath id="d">
<path d="m360 4140a3240 3240 0 0 0 6480 0v-3870h-6480v3870z"/>
</clipPath>
</defs>
<g transform="scale(.066667)" fill="none" fill-rule="evenodd" stroke-miterlimit="10" stroke-width="10">
<g clip-path="url(#d)">
<path class="Rot" d="m-225-225v7650h3825v-7650h-3825z"/>
<path class="Blau" d="m3600-225v7650h3825v-7650h-3825z"/>
<path class="Silber" d="m3600 1620v1440h3825v-1440h-3825z"/>
<path class="Silber" d="m3600 4410v1440h3825v-1440h-3825z"/>
<use class="Rand4" xlink:href="#c"/>
<use class="Rand4" xlink:href="#b"/>
<use class="Rand4" xlink:href="#a"/>
<use class="Gold" xlink:href="#c"/>
<use class="Gold" xlink:href="#b"/>
<use class="Gold" xlink:href="#a"/>
<path class="Gold Rand2" d="m2010 3690a120 120 0 0 0-120 120v30a120 120 0 0 0 120 120h480a120 120 0 0 0 120-120v-30a120 120 0 0 0-120-120h-480z"/>
<path class="Gold Rand2" d="m2010 4050a120 120 0 0 0-120 120v30a120 120 0 0 0 120 120h480a120 120 0 0 0 120-120v-30a120 120 0 0 0-120-120h-480z"/>
<path class="Rand3" d="m3600-225v7650"/>
<path class="Rand3" d="m7425 1620h-3825"/>
<path class="Rand3" d="m7425 5850h-3825"/>
<path class="Rand3" d="m7425 4410h-3825"/>
<path class="Rand3" d="m7425 3060h-3825"/>
</g>
<path class="Rand6" d="m360 4140a3240 3240 0 0 0 6480 0v-3870h-6480v3870z"/>
</g>
</svg>

<?xml version="1.0" encoding="iso-8859-1"?>
<!DOCTYPE svg PUBLIC "-//W3C//DTD SVG 1.1//EN" "http://www.w3.org/Graphics/SVG/1.1/DTD/svg11.dtd">
<!-- Auto-generated by fig2svg tool
     Date: Sun Oct 29 09:34:11 2006 -->
<svg xmlns="http://www.w3.org/2000/svg"
   xmlns:dc="http://purl.org/dc/elements/1.1/"
   xmlns:cc="http://creativecommons.org/ns#"
   xmlns:rdf="http://www.w3.org/1999/02/22-rdf-syntax-ns#"
   xmlns:svg="http://www.w3.org/2000/svg"
   xmlns:xlink="http://www.w3.org/1999/xlink"
     width="438" height="480" viewBox="21 15 438 480">
<metadata>
<rdf:RDF>
<rdf:Description
 dc:title="Wappen Obersaxen (CH-GR)"
 dc:date="2006-10-29"
 dc:format="image/svg+xml"
 dc:language="de">
<dc:creator rdf:resource="http://de.wikipedia.org/wiki/Benutzer:Bernina" />
</rdf:Description>
</rdf:RDF>
</metadata>
<title>
Wappen Obersaxen (CH-GR)
</title>
<style type="text/css">
  <![CDATA[
  .Rand2 { stroke: #202020; stroke-width:30; }
  .Rand3 { stroke: #202020; stroke-width:45; }
  .Rand4 { stroke: #202020; stroke-width:60; }
  .Rand6 { stroke: #202020; stroke-width:90; }
  .Blau { fill: #0000ff; }
  .Rot { fill: #ff0000; }
  .Gold { fill: #ffef00; }
  .Silber { fill: #ffffff; }
  ]]>
</style>
<defs>
<path id="bart-1"
      d="M2430,4770 L2430,630 L2070,630 L2070,1170 L1890,1170 L1620,1080
         L1530,900 L1530,630 L810,630 L810,990 L1170,990 L1170,1350
         L810,1350 L810,1710 L2070,1710 L2070,2160 L810,2160 L810,2520
         L1170,2520 L1170,2880 L810,2880 L810,3240 L1530,3240 L1530,2970
         L1620,2790 L1890,2700 L2070,2700 L2070,4770 L2250,5130 L2430,4770 Z" />
<path id="herz-1"
      d="M2250,6120 C2010,5970 1770,5820 1650,5655
         C1530,5490 1530,5310 1575,5175 C1620,5040 1710,4950 1800,4905
         C1890,4860 1980,4860 2055,4905 C2130,4950 2190,5040 2250,5130
         L2250,4770 C2250,4710 2250,4650 2145,4590
         C2040,4530 1830,4470 1650,4515 C1470,4560 1320,4710 1245,4965
         C1170,5220 1170,5580 1350,5850 C1530,6120 1890,6300 2250,6480
         C2610,6300 2970,6120 3150,5850 C3330,5580 3330,5220 3255,4965
         C3180,4710 3030,4560 2850,4515 C2670,4470 2460,4530 2355,4590
         C2250,4650 2250,4710 2250,4770 L2250,5130
         C2310,5040 2370,4950 2445,4905 C2520,4860 2610,4860 2700,4905
         C2790,4950 2880,5040 2925,5175 C2970,5310 2970,5490 2850,5655
         C2730,5820 2490,5970 2250,6120 Z" />
<path id="rundh-1"
      d="M2430,6480 A180,180 0.0 0 0 2070,6480 A180,180 0.0 0 0 2430,6480 Z" />
<clipPath id="clippath">
<path d="M360,4140 A3240,3240 0.0 0 0 6840,4140 L6840,270 L360,270 L360,4140 Z" />
</clipPath>
</defs>
<g stroke="none" stroke-miterlimit="10" stroke-width="10"
   stroke-linecap="butt" stroke-linejoin="miter"
   fill="none" fill-rule="evenodd" transform="scale(0.066667)">
<g clip-path="url(#clippath)">
<path id="feldv-1" class="Rot"
      d="M-225,-225 L-225,7425 L3600,7425 L3600,-225 L-225,-225 Z" />
<path id="feldh-1" class="Blau"
      d="M3600,-225 L3600,7425 L7425,7425 L7425,-225 L3600,-225 Z" />
<path id="balken-1" class="Silber"
      d="M3600,1620 L3600,3060 L7425,3060 L7425,1620 L3600,1620 Z" />
<path id="balken-2" class="Silber"
      d="M3600,4410 L3600,5850 L7425,5850 L7425,4410 L3600,4410 Z" />
<use class="Rand4" xlink:href="#bart-1" />
<use class="Rand4" xlink:href="#herz-1" />
<use class="Rand4" xlink:href="#rundh-1" />
<use class="Gold" xlink:href="#bart-1" />
<use class="Gold" xlink:href="#herz-1" />
<use class="Gold" xlink:href="#rundh-1" />
<path id="rundb-1" class="Gold Rand2"
      d="M2010,3690 A120,120 0.0 0 0 1890,3810 L1890,3840
         A120,120 0.0 0 0 2010,3960 L2490,3960 A120,120 0.0 0 0 2610,3840
         L2610,3810 A120,120 0.0 0 0 2490,3690 L2010,3690 Z" />
<path id="rundb-2" class="Gold Rand2"
      d="M2010,4050 A120,120 0.0 0 0 1890,4170 L1890,4200
         A120,120 0.0 0 0 2010,4320 L2490,4320 A120,120 0.0 0 0 2610,4200
         L2610,4170 A120,120 0.0 0 0 2490,4050 L2010,4050 Z" />
<path id="linie-1" class="Rand3" d="M3600,-225 L3600,7425" />
<path id="linie-2" class="Rand3" d="M7425,1620 L3600,1620" />
<path id="linie-3" class="Rand3" d="M7425,5850 L3600,5850" />
<path id="linie-4" class="Rand3" d="M7425,4410 L3600,4410" />
<path id="linie-5" class="Rand3" d="M7425,3060 L3600,3060" />
</g>
<path id="clip-boundary" class="Rand6"
      d="M360,4140 A3240,3240 0.0 0 0 6840,4140 L6840,270 L360,270 L360,4140 Z" />
</g>
</svg>
